X:1
T:Title
%%score { 1 | 2 }
L:1/8
Q:1/4=100
M:4/4
K:F
V:1 treble nm="Grand Piano"
V:2 bass 
V:1
 c2 c>c c2 d2 | c2 A2 F2 A2 | [FA]2 [EG]2 [EG]2 [GB]2 | [GB]2 A2 A3 A | c2 c2 c2 d2 | %5
w: Chas.~H.~Gabriel * * * *|||||
[M:7/8] c2 A2 F3 |[M:1/8] A |[M:4/4] G2 e2 e2 d2 |[M:3/4] [Ec]6 |[M:1/4] [Ac]2 | %10
w: |||||
[M:4/4] [Bd]2 [FA]2 [GB]>[^FA] [GB]>[_A=B] | [CAc]2 [CFA]2 [CFA]3 [CFA] | %12
w: ||
 [^CEA]2 [CEA]2 [CA]>[CG] [CE]>[EG] | [EG]2 [DF]2 [DF]3 [_EF] | [DF]2 [DF]2 [Fd]3 [Fd] | %15
w: |||
 F>F E>F c3 c | c2 [EBc]2 [FAc]3 [CFA] | [CFA]2 [B,EG]2 [F,A,CF]4 |] %18
w: |||
V:2
 [F,A,F]2 [F,A,F]>[F,A,F] [F,A,F]2 [F,B,F]2 | [F,A,F]2 [F,CF]2 [F,A,]2 [F,CF]2 | %2
 [C,C]2 [C,C]2 [C,C]2 [C,C]2 | [F,C]2 [F,CF]2 [F,CF]3 [F,CF] | %4
 [F,A,F]2 [F,A,F]2 [F,A,F]2 [F,B,F]2 |[M:7/8] [F,A,F]2 [F,CF]2 [F,A,]3 |[M:1/8][K:treble] [F,CF] | %7
[M:4/4] [G,CE]2 [G,CG]2 [G,CG]2 [G,=B,F]2 |[M:3/4][K:bass] [C,C]6 |[M:1/4] [C,C]2 | %10
[M:4/4] [C,C]2 [C,C]2 [C,C]>[C,C] [C,C]>[C,C] | F,2 F,2 F,3 F, | %12
 A,,2 A,,2 [A,,A,]>[A,,A,] [A,,A,]>[A,,A,] | [D,A,]2 [D,A,]2 [D,A,]3 [C,A,] | %14
 [B,,B,]2 [B,,B,]2 [B,,B,]3 [B,,B,] | [B,D]>[B,D] [B,^C]>[B,D] [A,=CF]3 [B,CE] | %16
 [A,CF]2[K:bass] G,2 F,3 F, | C,2 C,2 F,,4 |] %18

